map_marker_monochrome/openmoji_sandwich.svg

<svg xmlns="http://www.w3.org/2000/svg" width="24" height="24" viewBox="0 0 24 24"> <g transform="scale(0.333333333)">  <g id="line">
    <path fill="none" stroke="#000000" stroke-linecap="round" stroke-linejoin="round" stroke-miterlimit="10" stroke-width="2" d="M59.6826,55.6826l-1.3652-1.3652L17.6836,13.6836l-1.3672-1.3672C15.918,12.1201,15.4746,12,15,12c-1.6562,0-3,1.3438-3,3v43 c0,1.1045,0.8965,2,2,2h43c1.6563,0,3-1.3437,3-3C60,56.5254,59.8799,56.082,59.6826,55.6826z"/>
    <line x1="23" x2="33" y1="53" y2="43" fill="none" stroke="#000000" stroke-linecap="round" stroke-linejoin="round" stroke-miterlimit="10" stroke-width="2"/>
    <line x1="18" x2="28" y1="48" y2="38" fill="none" stroke="#000000" stroke-linecap="round" stroke-linejoin="round" stroke-miterlimit="10" stroke-width="2"/>
    <line x1="17" x2="24" y1="39" y2="32" fill="none" stroke="#000000" stroke-linecap="round" stroke-linejoin="round" stroke-miterlimit="10" stroke-width="2"/>
    <line x1="32" x2="39" y1="55" y2="48" fill="none" stroke="#000000" stroke-linecap="round" stroke-linejoin="round" stroke-miterlimit="10" stroke-width="2"/>
    <path fill="none" stroke="#000000" stroke-linecap="round" stroke-linejoin="round" stroke-miterlimit="10" stroke-width="2" d="M34.5137,19.7676c-0.2266-0.4317-0.5157-0.8389-0.8789-1.2031c-1.334-1.334-3.2285-1.7344-4.9219-1.2452 c0.3144-1.0263,0.0781-2.1845-0.7344-2.997c-0.8125-0.8125-1.9707-1.0479-2.9961-0.7344C25.4707,11.8955,25.0703,10,23.7363,8.666 c-1.9531-1.9531-5.1172-1.9531-7.0703,0c-0.1836,0.1846-0.3359,0.3887-0.4844,0.5938c-0.1855-0.2813-0.4003-0.5479-0.6464-0.795 c-1.9532-1.9531-5.1192-1.9531-7.0704,0C6.6777,10.252,6.5449,13.041,8.0273,15C6.8027,15.9111,6,17.3564,6,19 c0,1.8867,1.0566,3.5098,2.5996,4.3613C7.6523,23.8652,7,24.8516,7,26s0.6523,2.1348,1.5996,2.6387 c-0.9297,0.5136-1.6777,1.3105-2.1308,2.2734"/>
    <path fill="none" stroke="#000000" stroke-linecap="round" stroke-linejoin="round" stroke-miterlimit="10" stroke-width="2" d="M48.5566,36.8574c0.2032-0.958-0.0351-1.9912-0.7793-2.7363c-0.1347-0.1348-0.289-0.2295-0.4414-0.332"/>
    <path fill="none" stroke="#000000" stroke-linecap="round" stroke-linejoin="round" stroke-miterlimit="10" stroke-width="2" d="M7.7559,43.2363C6.6875,44.1484,6,45.4844,6,47c0,1.8877,1.0566,3.5098,2.5996,4.3613C7.6523,51.8652,7,52.8516,7,54 s0.6523,2.1348,1.5996,2.6387C7.0566,57.4902,6,59.1133,6,61c0,2.7617,2.2383,5,5,5c1.8867,0,3.5098-1.0576,4.3613-2.6006 c0.1934,0.3662,0.4629,0.6865,0.7832,0.9444"/>
    <path fill="none" stroke="#000000" stroke-linecap="round" stroke-linejoin="round" stroke-miterlimit="10" stroke-width="2" d="M30.6191,64.6514C31.0313,64.8701,31.498,65,32,65c1.1484,0,2.1348-0.6523,2.6387-1.6006C35.4883,64.9424,37.1133,66,39,66 c1.8867,0,3.5098-1.0576,4.3613-2.6006C43.8652,64.3477,44.8516,65,46,65c1.1484,0,2.1348-0.6523,2.6387-1.6006 C49.4902,64.9424,51.1113,66,53,66c1.6426,0,3.0879-0.8037,4-2.0273c1.959,1.4814,4.75,1.3496,6.5371-0.4366 c1.9512-1.9531,1.9512-5.1191-0.0019-7.0713c-0.2461-0.247-0.5137-0.4619-0.795-0.6464c0.2051-0.1495,0.4102-0.2998,0.5938-0.4844 c1.9531-1.9531,1.9512-5.1192,0-7.0703c-1.336-1.335-3.2305-1.7344-4.9238-1.2461c0.3144-1.0264,0.0781-2.1856-0.7344-2.9981 c-0.8106-0.8105-1.9707-1.0468-2.9961-0.7334c0.4883-1.6933,0.0898-3.5879-1.2461-4.9228 c-1.2988-1.2998-3.1289-1.7061-4.7852-1.2754"/>
    <path fill="none" stroke="#000000" stroke-linecap="round" stroke-linejoin="round" stroke-miterlimit="10" stroke-width="2" d="M39.4482,23.5581l4.7657,11.9907l0,0l-4.7657-11.9917c-0.2753-0.6894-0.9296-1.1152-1.6289-1.1299 C38.5186,22.4429,39.1729,22.8677,39.4482,23.5581z"/>
    <path fill="none" stroke="#000000" stroke-linecap="round" stroke-linejoin="round" stroke-miterlimit="10" stroke-width="2" d="M32.8975,24.2329l4.2207-1.6777c0.2304-0.0918,0.4687-0.1328,0.7011-0.128c0.6993,0.0157,1.3536,0.4405,1.6289,1.1309 l4.7657,11.9907"/>
    <path fill="none" stroke="#000000" stroke-linecap="round" stroke-linejoin="round" stroke-miterlimit="10" stroke-width="2" d="M18.6836,63.2139l0.5156,1.2968c0.3653,0.92,1.4072,1.3672,2.3281,1.0039l5.7891-2.3007"/>
    <path fill="none" stroke="#000000" stroke-linecap="round" stroke-linejoin="round" stroke-miterlimit="10" stroke-width="2" d="M9.25,33.625l-0.3691,0.1465c-0.92,0.3672-1.3692,1.4082-1.0039,2.3301l1.373,3.455"/>
  </g></g></svg>

<svg xmlns="http://www.w3.org/2000/svg" width="24" height="24" viewBox="0 0 24 24"> <g transform="translate(0.0 0.00006374392778774052) scale(0.39348103573061927)">
  
  <g
     id="line"
     transform="translate(-5,-6.0062775)">
    <path
       fill="none"
       stroke="#000"
       stroke-linecap="round"
       stroke-linejoin="round"
       stroke-miterlimit="10"
       stroke-width="2"
       d="M 59.6826,55.6826 58.3174,54.3174 17.6836,13.6836 16.3164,12.3164 C 15.918,12.1201 15.4746,12 15,12 c -1.6562,0 -3,1.3438 -3,3 v 43 c 0,1.1045 0.8965,2 2,2 h 43 c 1.6563,0 3,-1.3437 3,-3 0,-0.4746 -0.1201,-0.918 -0.3174,-1.3174 z"
       id="path2" />
    <line
       x1="23"
       x2="33"
       y1="53"
       y2="43"
       fill="none"
       stroke="#000"
       stroke-linecap="round"
       stroke-linejoin="round"
       stroke-miterlimit="10"
       stroke-width="2"
       id="line4" />
    <line
       x1="18"
       x2="28"
       y1="48"
       y2="38"
       fill="none"
       stroke="#000"
       stroke-linecap="round"
       stroke-linejoin="round"
       stroke-miterlimit="10"
       stroke-width="2"
       id="line6" />
    <line
       x1="17"
       x2="24"
       y1="39"
       y2="32"
       fill="none"
       stroke="#000"
       stroke-linecap="round"
       stroke-linejoin="round"
       stroke-miterlimit="10"
       stroke-width="2"
       id="line8" />
    <line
       x1="32"
       x2="39"
       y1="55"
       y2="48"
       fill="none"
       stroke="#000"
       stroke-linecap="round"
       stroke-linejoin="round"
       stroke-miterlimit="10"
       stroke-width="2"
       id="line10" />
    <path
       fill="none"
       stroke="#000"
       stroke-linecap="round"
       stroke-linejoin="round"
       stroke-miterlimit="10"
       stroke-width="2"
       d="M 34.5137,19.7676 C 34.2871,19.3359 33.998,18.9287 33.6348,18.5645 32.3008,17.2305 30.4063,16.8301 28.7129,17.3193 29.0273,16.293 28.791,15.1348 27.9785,14.3223 27.166,13.5098 26.0078,13.2744 24.9824,13.5879 25.4707,11.8955 25.0703,10 23.7363,8.666 21.7832,6.7129 18.6191,6.7129 16.666,8.666 16.4824,8.8506 16.3301,9.0547 16.1816,9.2598 15.9961,8.9785 15.7813,8.7119 15.5352,8.4648 13.582,6.5117 10.416,6.5117 8.4648,8.4648 6.6777,10.252 6.5449,13.041 8.0273,15 6.8027,15.9111 6,17.3564 6,19 6,20.8867 7.0566,22.5098 8.5996,23.3613 7.6523,23.8652 7,24.8516 7,26 c 0,1.1484 0.6523,2.1348 1.5996,2.6387 -0.9297,0.5136 -1.6777,1.3105 -2.1308,2.2734"
       id="path12" />
    <path
       fill="none"
       stroke="#000"
       stroke-linecap="round"
       stroke-linejoin="round"
       stroke-miterlimit="10"
       stroke-width="2"
       d="m 48.5566,36.8574 c 0.2032,-0.958 -0.0351,-1.9912 -0.7793,-2.7363 -0.1347,-0.1348 -0.289,-0.2295 -0.4414,-0.332"
       id="path14" />
    <path
       fill="none"
       stroke="#000"
       stroke-linecap="round"
       stroke-linejoin="round"
       stroke-miterlimit="10"
       stroke-width="2"
       d="M 7.7559,43.2363 C 6.6875,44.1484 6,45.4844 6,47 6,48.8877 7.0566,50.5098 8.5996,51.3613 7.6523,51.8652 7,52.8516 7,54 7,55.1484 7.6523,56.1348 8.5996,56.6387 7.0566,57.4902 6,59.1133 6,61 c 0,2.7617 2.2383,5 5,5 1.8867,0 3.5098,-1.0576 4.3613,-2.6006 0.1934,0.3662 0.4629,0.6865 0.7832,0.9444"
       id="path16" />
    <path
       fill="none"
       stroke="#000"
       stroke-linecap="round"
       stroke-linejoin="round"
       stroke-miterlimit="10"
       stroke-width="2"
       d="M 30.6191,64.6514 C 31.0313,64.8701 31.498,65 32,65 33.1484,65 34.1348,64.3477 34.6387,63.3994 35.4883,64.9424 37.1133,66 39,66 40.8867,66 42.5098,64.9424 43.3613,63.3994 43.8652,64.3477 44.8516,65 46,65 47.1484,65 48.1348,64.3477 48.6387,63.3994 49.4902,64.9424 51.1113,66 53,66 c 1.6426,0 3.0879,-0.8037 4,-2.0273 1.959,1.4814 4.75,1.3496 6.5371,-0.4366 1.9512,-1.9531 1.9512,-5.1191 -0.0019,-7.0713 -0.2461,-0.247 -0.5137,-0.4619 -0.795,-0.6464 0.2051,-0.1495 0.4102,-0.2998 0.5938,-0.4844 1.9531,-1.9531 1.9512,-5.1192 0,-7.0703 -1.336,-1.335 -3.2305,-1.7344 -4.9238,-1.2461 0.3144,-1.0264 0.0781,-2.1856 -0.7344,-2.9981 -0.8106,-0.8105 -1.9707,-1.0468 -2.9961,-0.7334 0.4883,-1.6933 0.0898,-3.5879 -1.2461,-4.9228 -1.2988,-1.2998 -3.1289,-1.7061 -4.7852,-1.2754"
       id="path18" />
    <path
       fill="none"
       stroke="#000"
       stroke-linecap="round"
       stroke-linejoin="round"
       stroke-miterlimit="10"
       stroke-width="2"
       d="m 39.4482,23.5581 4.7657,11.9907 v 0 L 39.4482,23.5571 c -0.2753,-0.6894 -0.9296,-1.1152 -1.6289,-1.1299 0.6993,0.0157 1.3536,0.4405 1.6289,1.1309 z"
       id="path20" />
    <path
       fill="none"
       stroke="#000"
       stroke-linecap="round"
       stroke-linejoin="round"
       stroke-miterlimit="10"
       stroke-width="2"
       d="m 32.8975,24.2329 4.2207,-1.6777 c 0.2304,-0.0918 0.4687,-0.1328 0.7011,-0.128 0.6993,0.0157 1.3536,0.4405 1.6289,1.1309 l 4.7657,11.9907"
       id="path22" />
    <path
       fill="none"
       stroke="#000"
       stroke-linecap="round"
       stroke-linejoin="round"
       stroke-miterlimit="10"
       stroke-width="2"
       d="m 18.6836,63.2139 0.5156,1.2968 c 0.3653,0.92 1.4072,1.3672 2.3281,1.0039 l 5.7891,-2.3007"
       id="path24" />
    <path
       fill="none"
       stroke="#000"
       stroke-linecap="round"
       stroke-linejoin="round"
       stroke-miterlimit="10"
       stroke-width="2"
       d="m 9.25,33.625 -0.3691,0.1465 c -0.92,0.3672 -1.3692,1.4082 -1.0039,2.3301 l 1.373,3.455"
       id="path26" />
  </g>
</g></svg>
